X:527
%%etbk:tnset id:65,pos:2,rep:2x,ant:
%%etbk:tnset id:260,pos:3,rep:2x,ant:
%%etbk:tnset id:261,pos:1,rep:3x,ant:
%%etbk:tnset id:272,pos:2,rep:3x,ant:AABB-A(Gesang)-BB-AABB-AABB
%%etbk:pldat 2016-06-20T18:38,2016-06-18T15:57,2016-05-04T14:19,2016-04-09T16:10,2016-04-07T17:15,2016-04-05T16:29,2016-03-05T14:26,2016-02-26T17:28,2015-12-11T18:19,2015-12-10T18:12,2015-12-09T15:51,2015-12-08T15:21,2015-12-07T18:40,2015-12-06T14:11,2015-11-01T15:54,2015-10-08T17:49,2015-10-07T16:10,2015-06-21T15:20,2015-02-16T19:14,2014-10-30T18:24,2014-10-29T16:22,2014-10-28T16:32,2014-10-25T14:39,2014-08-21T18:54,2014-08-14T19:36,2014-08-13T19:59,2014-08-12T19:26,2014-08-11T19:48,2014-08-10T11:43,2014-07-31T18:38,2014-06-22T16:30,2014-06-09T15:01,2014-05-28T14:23,2014-05-21T18:24,2014-04-24T18:13,2014-04-23T16:16,2014-04-22T18:59,2014-04-21T15:04,2014-04-18T11:32,2014-04-16T09:04,2014-04-14T10:24,2014-04-09T15:53,2014-04-06T11:41,2014-03-04T18:56,2014-03-02T15:28,2014-02-25T18:55,2014-01-29T17:06,2014-01-28T17:35,2014-01-22T15:51,2014-01-21T16:55,2014-01-19T13:19,2014-01-18T16:27,2014-01-18T13:58,2014-01-15T16:00,2014-01-13T19:11,2014-01-12T14:56,2014-01-08T15:24,2014-01-03T16:23,2014-01-02T11:27,2013-12-29T13:52,2013-12-28T15:30,2013-12-27T17:36,2013-12-26T14:57,2013-12-15T16:43,2013-10-30T16:46,2013-10-29T16:47,2013-10-17T18:44,2013-10-14T19:01
T: Tam Lin (dm)
Z: Piano Box Version by Martin Fleischmann
H: Created 2013-10-04 /  Last Modified 2013-10-04
R: reel
M: 4/4
L: 1/8
K: Dmin
"dm"!1!A,2!3!DA, !5!FA,DA,| "gm"!2!B,2!3!DB, !5!FB,DB,| "C"!1!C2!3!EC !5!GCEC| "am"!5!FEDC "dm"!1!A,!3!DDC|
"dm"!1!A,2!3!DA, !5!FA,DA,| "gm"!2!B,2!3!DB, !5!FB,DB,| "C"!1!C2!3!EC !5!GCEC|1 "am"!5!FEDC "dm"!1!A,!3!D!3!D2:|2 "am"!5!FEDC "dm"!1!A,!3!D!1!D2:|
|:"dm"!5!d!2!A!1!A!2!A !1!F!2!A!1!D!2!A| dAAA FADA| "C"!5!c!2!G!1!G!2!G !1!E!2!G!1!G!2!G| !5!c!2!G!1!G!1!G !3!cdec|
"dm"!5!d!2!A!1!A!2!A !1!F!2!A!1!D!2!A| dAAA FADz| "am"!2!B,3A, !2!B,CD!5!E|1 !5!FD!4!EC "dm"!1!A,!3!D!1!D2:|2 !5!FD!4!EC "dm"!1!A,!3!D!3!D2:|


